style/icons/jupyternaut-lite.svg

<?xml version="1.0" encoding="UTF-8"?>
<svg fill="none" version="1.1" viewBox="0 0 38 38" xmlns="http://www.w3.org/2000/svg">
 <g>
  <circle cx="19" cy="19" r="19" fill="#f7dc1e"/>
  <path d="m19.948 6.8365c0.6344-0.21603 1.0908-0.81693 1.0908-1.5244 0-0.88916-0.7208-1.61-1.61-1.61s-1.61 0.72081-1.61 1.61c0 0.70739 0.4562 1.3082 1.0905 1.5243v1.1674h-0.5394c-6.2858 0-11.399 5.1132-11.399 11.399 0 6.2859 5.1133 11.399 11.399 11.399h1.398c6.2859 0 11.399-5.1132 11.399-11.399 0-6.2253-5.0159-11.301-11.219-11.397v-1.1687zm-1.5781 22.163h1.398c5.3669 0 9.7303-4.9787 9.7303-8.3455 0-5.3669-4.3634-9.7303-9.7303-9.7303h-1.398c-5.3668 0-9.7302 4.3634-9.7302 9.7303 0 3.3668 4.3634 8.3455 9.7302 8.3455zm14.522-5.003c0.7341 0 0.7375-0.5123 0.7422-1.2408v-1e-4c0.0012-0.1847 0.0025-0.3833 0.0158-0.591 0.0573-0.8624 0.0739-1.7008 0.0573-2.4892l-0.0033-0.119c-0.0373-1.3318-0.0436-1.5579-1.3047-1.8058l-0.1479-0.0246 0.0015 0.0495c0.0076 0.2465 0.0151 0.493 0.0151 0.739 0 1.8018-0.2712 3.5478-0.773 5.189-0.1363 0.4459 0.3433 0.8629 0.7534 0.6411l0.6436-0.3481zm-27.612 0c-0.73409 0-0.73741-0.5123-0.74215-1.2407-0.0012-0.1848-0.00249-0.3834-0.01581-0.5912-0.0573-0.8624-0.07392-1.7007-0.05731-2.4892l0.00336-0.1189c0.03721-1.3319 0.04352-1.5579 1.3047-1.8058l0.14784-0.0247-0.00151 0.0495c-0.00756 0.2465-0.01511 0.493-0.01511 0.739 0 1.8019 0.27119 3.5478 0.773 5.189 0.13634 0.4459-0.34326 0.8629-0.7534 0.6411l-0.64361-0.3481zm14.242-12.005c-4.6297 0-8.4776 2.9361-9.4584 6.7577-0.13379 0.5212 0.5513 0.6935 0.877 0.2653 1.3829-1.818 3.1418-2.153 4.7068-2.4511 2.1143-0.4027 3.8746-0.7379 3.8746-4.5719z" clip-rule="evenodd" fill="#000" fill-rule="evenodd"/>
 </g>
</svg>

<?xml version="1.0" encoding="UTF-8" standalone="no"?>
<svg
   viewBox="0 0 38 38"
   fill="none"
   version="1.1"
   id="svg1"
   sodipodi:docname="jupyternaut-lite.svg"
   inkscape:version="1.4 (e7c3feb1, 2024-10-09)"
   xmlns:inkscape="http://www.inkscape.org/namespaces/inkscape"
   xmlns:sodipodi="http://sodipodi.sourceforge.net/DTD/sodipodi-0.dtd"
   xmlns="http://www.w3.org/2000/svg"
   xmlns:svg="http://www.w3.org/2000/svg">
  <defs
     id="defs1" />
  <sodipodi:namedview
     id="namedview1"
     pagecolor="#ffffff"
     bordercolor="#000000"
     borderopacity="0.25"
     inkscape:showpageshadow="2"
     inkscape:pageopacity="0.0"
     inkscape:pagecheckerboard="0"
     inkscape:deskcolor="#d1d1d1"
     inkscape:zoom="15.973143"
     inkscape:cx="20.284048"
     inkscape:cy="21.849175"
     inkscape:window-width="1800"
     inkscape:window-height="1097"
     inkscape:window-x="0"
     inkscape:window-y="44"
     inkscape:window-maximized="1"
     inkscape:current-layer="g1" />
  <g
     id="g1">
    <circle
       cx="19"
       cy="19"
       r="19"
       fill="#F37726"
       id="circle1"
       style="fill:#f7dc1e;fill-opacity:1" />
    <path
       fill-rule="evenodd"
       clip-rule="evenodd"
       d="M19.9483 6.83653C20.5827 6.6205 21.0391 6.0196 21.0391 5.31212C21.0391 4.42296 20.3183 3.70215 19.4291 3.70215C18.5399 3.70215 17.8191 4.42296 17.8191 5.31212C17.8191 6.01951 18.2753 6.62033 18.9096 6.83644V8.00387H18.3702C12.0844 8.00387 6.97151 13.1171 6.97151 19.4026C6.97151 25.6885 12.0848 30.8013 18.3702 30.8013H19.7682C26.0541 30.8013 31.167 25.6881 31.167 19.4026C31.167 13.1773 26.1511 8.10183 19.9483 8.00527V6.83653ZM18.3702 29H19.7682C25.1351 29 29.4985 24.0213 29.4985 20.6545C29.4985 15.2876 25.1351 10.9242 19.7682 10.9242H18.3702C13.0034 10.9242 8.64 15.2876 8.64 20.6545C8.64 24.0213 13.0034 29 18.3702 29ZM32.8926 23.997C33.6267 23.997 33.6301 23.4847 33.6348 22.7562V22.7562V22.7562V22.7561C33.636 22.5714 33.6373 22.3728 33.6506 22.1651C33.7079 21.3027 33.7245 20.4643 33.7079 19.6759L33.7046 19.5569C33.6673 18.2251 33.661 17.999 32.3999 17.7511L32.252 17.7265L32.2535 17.776C32.2611 18.0225 32.2686 18.269 32.2686 18.515C32.2686 20.3168 31.9974 22.0628 31.4956 23.704C31.3593 24.1499 31.8389 24.5669 32.249 24.3451L32.8926 23.997ZM5.28037 23.997C4.54628 23.997 4.54296 23.4847 4.53822 22.7563C4.53702 22.5715 4.53573 22.3729 4.52241 22.1651C4.46511 21.3027 4.44849 20.4644 4.4651 19.6759L4.46846 19.557C4.50567 18.2251 4.51198 17.9991 5.77316 17.7512L5.921 17.7265L5.91949 17.776L5.91949 17.776C5.91193 18.0225 5.90438 18.269 5.90438 18.515C5.90438 20.3169 6.17557 22.0628 6.67738 23.704C6.81372 24.1499 6.33412 24.5669 5.92398 24.3451L5.28037 23.997ZM19.5225 11.9922C14.8928 11.9922 11.0449 14.9283 10.0641 18.7499C9.93031 19.2711 10.6154 19.4434 10.9411 19.0152C12.324 17.1972 14.0829 16.8622 15.6479 16.5641C17.7622 16.1614 19.5225 15.8262 19.5225 11.9922Z"
       fill="white"
       id="path1"
       style="fill:#000000;fill-opacity:1" />
  </g>
</svg>
